chrome/icons/star-filled.svg

<svg height="16" viewBox="1 25 1022 976" width="16" xmlns="http://www.w3.org/2000/svg" xmlns:xlink="http://www.w3.org/1999/xlink">
  <path d="M216,1000C207.333,1000 199.833,996.75 193.5,990.25C187.167,983.75 184,976.167 184,967.5C184,965.167 184.167,963.333 184.5,962L238,649L10.5,427.5C4.16667,421.167 1,413.667 1,405C1,397.333 3.66667,390.333 9,384C14.3333,377.667 20.8333,373.833 28.5,372.5L342.5,327L483.5,42C486.167,36.6667 490.083,32.4167 495.25,29.25C500.417,26.0834 505.833,24.5 511.5,24.5C517.5,24.5 523.167,26 528.5,29C533.833,32 537.833,36.3334 540.5,42L681.5,327L995.5,372.5C1003.5,373.833 1010.08,377.5 1015.25,383.5C1020.42,389.5 1023,396.5 1023,404.5C1023,413.833 1019.83,421.5 1013.5,427.5L786,649L839.5,962C839.833,963.333 840,965.167 840,967.5C840,976.167 836.833,983.667 830.5,990C824.167,996.333 816.667,999.5 808,999.5C802.333,999.5 797.333,998.333 793,996L512,848L231,996C226.333,998.667 221.333,1000 216,1000Z" fill="context-fill" fill-opacity="context-fill-opacity">
  </path>
</svg>

<svg xmlns="http://www.w3.org/2000/svg" width="16" height="16" viewBox="1 25 1022 976"><path fill="context-fill" fill-opacity="context-fill-opacity" d="M216 1000q-13 0-22.5-9.75T184 967.5q0-3.5.5-5.5L238 649 10.5 427.5Q1 418 1 405q0-11.5 8-21t19.5-11.5l314-45.5 141-285q4-8 11.75-12.75t16.25-4.75q9 0 17 4.5t12 13l141 285 314 45.5c8 1.333 14.58 5 19.75 11s7.75 13 7.75 21c0 9.333-3.17 17-9.5 23L786 649l53.5 313q.5 2 .5 5.5 0 13-9.5 22.5t-22.5 9.5q-8.5 0-15-3.5L512 848 231 996q-7 4-15 4"/></svg>
